X: 43325
T: WoolyPig
R: jig
M: 6/8
K: Dminor
D>FA d>ef|e>cA G>EC|D>FA d>ef|e>cA c d2|
D>FA d>ef|e>cA G>EC|D>ED E>DC|G>EC D3:|
|:d>fa ~a3|b>ge d>BG|d>fa ~a3|b>ge g3|
a>fd e>ce|f>dB A>FD|D>FA d>ef|e>cA c d2:|

